icons/ticket-2-line.svg

<svg xmlns="http://www.w3.org/2000/svg" width="24" height="24" fill="none"><g clip-path="url(#a)"><g><path fill="#121212" d="M21 3C21.2652 3 21.5196 3.10536 21.7071 3.29289C21.8946 3.48043 22 3.73478 22 4V9.5C21.337 9.5 20.7011 9.76339 20.2322 10.2322C19.7634 10.7011 19.5 11.337 19.5 12C19.5 12.663 19.7634 13.2989 20.2322 13.7678C20.7011 14.2366 21.337 14.5 22 14.5V20C22 20.2652 21.8946 20.5196 21.7071 20.7071C21.5196 20.8946 21.2652 21 21 21H3C2.73478 21 2.48043 20.8946 2.29289 20.7071C2.10536 20.5196 2 20.2652 2 20V14.5C2.66304 14.5 3.29893 14.2366 3.76777 13.7678C4.23661 13.2989 4.5 12.663 4.5 12C4.5 11.337 4.23661 10.7011 3.76777 10.2322C3.29893 9.76339 2.66304 9.5 2 9.5V4C2 3.73478 2.10536 3.48043 2.29289 3.29289C2.48043 3.10536 2.73478 3 3 3H21ZM20 5H4V7.968L4.156 8.049C4.83432 8.41905 5.40593 8.95752 5.81577 9.61257C6.22561 10.2676 6.45987 11.0172 6.496 11.789L6.5 12C6.50013 12.8082 6.28252 13.6016 5.87005 14.2967C5.45758 14.9917 4.86549 15.5629 4.156 15.95L4 16.032V19H20V16.031L19.844 15.951C19.1657 15.581 18.5941 15.0425 18.1842 14.3874C17.7744 13.7324 17.5401 12.9828 17.504 12.211L17.5 12C17.5 10.296 18.447 8.813 19.844 8.05L20 7.967V5ZM16 9V15H8V9H16Z"/></g></g><defs><clipPath id="a"><rect width="24" height="24" fill="white"/></clipPath></defs></svg>

<svg width="24" height="24" fill="none" xmlns="http://www.w3.org/2000/svg"><g clip-path="url(#a)"><path d="M21 3a1 1 0 0 1 1 1v5.5a2.5 2.5 0 0 0 0 5V20a1 1 0 0 1-1 1H3a1 1 0 0 1-1-1v-5.5a2.5 2.5 0 0 0 0-5V4a1 1 0 0 1 1-1h18Zm-1 2H4v2.968l.156.081a4.5 4.5 0 0 1 2.34 3.74L6.5 12a4.5 4.5 0 0 1-2.344 3.95L4 16.032V19h16v-2.969l-.156-.08a4.5 4.5 0 0 1-2.34-3.74L17.5 12c0-1.704.947-3.187 2.344-3.95L20 7.967V5Zm-4 4v6H8V9h8Z" /></g><defs><clipPath id="a"><path fill="#fff" d="M0 0h24v24H0z"/></clipPath></defs></svg>
